svgs/sharp-regular/message-middle-top.svg

<svg xmlns="http://www.w3.org/2000/svg" viewBox="0 0 512 512"><!--! Font Awesome Pro 6.6.0 by @fontawesome - https://fontawesome.com License - https://fontawesome.com/license (Commercial License) Copyright 2024 Fonticons, Inc. --><path d="M173.7 96L48 96 0 96l0 48L0 464l0 48 48 0 416 0 48 0 0-48 0-320 0-48-48 0L338.3 96 287.6 36.9 256 0 224.4 36.9 173.7 96zM464 144l0 320L48 464l0-320 125.7 0 22.1 0 14.4-16.8L256 73.8l45.8 53.5L316.2 144l22.1 0L464 144z"/></svg>

<svg xmlns="http://www.w3.org/2000/svg" viewBox="0 0 512 512"><!--! Font Awesome Pro 6.4.0 by @fontawesome - https://fontawesome.com License - https://fontawesome.com/license (Commercial License) Copyright 2023 Fonticons, Inc. --><path d="M173.7 96H48 0v48V464v48H48 464h48V464 144 96H464 338.3L287.6 36.9 256 0 224.4 36.9 173.7 96zM464 144V464H48V144H173.7h22.1l14.4-16.8L256 73.8l45.8 53.5L316.2 144h22.1H464z"/></svg>
